X:53
T:Maple Sugar
C:Ward Allen
M:4/4
L:1/4
Z:robin.beech@mcgill.ca
R:reel
K:A
cd |: e2 e3/2f/ | edcB| dc2B | c2dc| cB2 c| ddcB| dccB|
c2 cd | e2 e3/2 f/ | edcB| dc2B | c2dc| cB2 c| ddcB |1 A4- | A2 cd :|2 A4 - | A2 FG |:
K:D
A2A3/2B/ | AFAd | ff2e | dABA | ee2d | cABc | ddcB | AF=G^G |
A2A3/2B/ | AFAd | ff2e | dABA | ee2d | cABc | d2dc | d4 :|
